X: 3826
T: Black Duck Brook, The
R: jig
M: 6/8
K: Amixolydian
|:EAA ABc|d2B e2d|cBA Ace|dBG G2F|
EAA ABc|d2B e2d|cBA Ace|1 dBG A2F:|2 dBG A3||
|:g3 gfa|gdB GBd|cAA eAA|ced cBA|
g3 gfa|gdB GBd|cec dBG|1 BA^G Ace:|2 BA^G A2F||

